Papirus/64x64/apps/octodad-dadliest-catch.svg

<svg width="64" height="64" version="1.1" xmlns="http://www.w3.org/2000/svg">
 <path d="m22 60h17s1 0 2-2c1.000001-3 5.999999-21 5.999999-21l-29-1s0.03239 23.972246 4.000001 24z" style="opacity:.2"/>
 <path d="m22 59h17s1 0 2-2c1.000001-3 5.999999-21 5.999999-21l-29-1s0.03239 23.972246 4.000001 24z" style="fill:#df8028"/>
 <path d="m12.999999 26c0 26.000001 20.000001 29 27.000001 29 20 0 20-18 20-18s-5-4-5-9 1-11 1-11-1.816695-12-14.366606-12c-7.935406 0-16.733214 4.183304-16.733214 4.183304l-5.577738 4.183303s-6.322443 5.633393-6.322443 12.633393z" style="opacity:.2"/>
 <path d="m12.999999 25c0 26.000001 20.000001 29 27.000001 29 20 0 20-18 20-18s-5-4-5-9 1-11 1-11-1.816695-12-14.366606-12c-7.935406 0-16.733214 4.1833035-16.733214 4.1833035l-5.577738 4.1833034s-6.322443 5.633393-6.322443 12.633393z" style="fill:#f8bb07"/>
 <path d="m41.632812 4c-7.935406 0-16.732421 4.1835938-16.732421 4.1835938l-5.578125 4.1835942s-6.322266 5.632812-6.322266 12.632812c0 0.238254 0.012292 0.460906 0.015625 0.695312 0.180497-6.856569 6.306641-12.328124 6.306641-12.328124l5.578125-4.1835942s8.797015-4.1835938 16.732421-4.1835938c11.23025 0 13.849186 9.545572 14.279297 11.566406 0.03347-0.214375 0.087891-0.566406 0.087891-0.566406s-1.817277-12-14.367188-12zm13.382813 23.269531c-0.00436 0.243059-0.015625 0.491222-0.015625 0.730469 0 4.907977 4.766025 8.803735 4.943359 8.947266 0.051705-0.585047 0.056641-0.947266 0.056641-0.947266s-4.809008-3.85813-4.984375-8.730469z" style="fill:#ffffff;opacity:.2"/>
 <path d="m20 14c-4.000001 0-8 9-8 9s-1 12 5 12c5 0 7-9 7-9s2.999999-12-4-12zm17 4c-8.000001 0-8 9-8 9s-1 11 7 11 8-8 8-8 0.999999-12-7-12z" style="opacity:.2"/>
 <path d="m20.000001 13c6.999999 0 3.999999 12 3.999999 12s-2 9.000001-7 9.000001c-6 0-5-12-5-12s4-9.000001 8.000001-9.000001z" style="fill:#ffffff"/>
 <path d="m37.000001 17.000001c7.999999 0 6.999999 12 6.999999 12s0 7.999999-8 7.999999-7-11-7-11 0-8.999999 8.000001-8.999999z" style="fill:#ffffff"/>
 <ellipse cx="36" cy="25" rx="3" ry="4" style="fill:#4f4f4f"/>
 <path d="m8.9999988 30s-1 3.999999 3.0000002 6.999999l8-2 8-11.999999v13.999999l4.000001 7c0.999999 2 17.999999-3 17.999999-3s0 16.000001-17.999999 16.000001c-4.000001 0-8.000001-6.000001-12-10-3.000001 2.999998-8.000001 5-15.000001-2.000002-2.9999998-4.999998 4-14.999998 4-14.999998z" style="opacity:.2"/>
 <path d="M 9,29.000001 C 9,29.000001 8,33 12,36 l 8,-2 8,-11.999999 V 36 l 4.000001,7 C 33,45 50,40 50,40 50,40 50,56.000001 32.000001,56.000001 28,56.000001 24,50 20.000001,46.000001 17,48.999999 12,51.000001 5,43.999999 2,39.000001 9,29.000001 9,29.000001 Z" style="fill:#facd48"/>
 <ellipse cx="19" cy="22" rx="3" ry="4" style="fill:#4f4f4f"/>
 <path d="m28 22-8 12-8 2c-2.4024118-1.801809-2.9889005-3.950628-3.0839844-5.390625-0.1121678 1.20372-0.0092518 4.070698 3.0839844 6.390625l8-2 8-12v-1zm-19 7s-5.002027 7.170442-4.7128906 12.404297c0.3051348-4.945725 4.3586204-10.880913 4.6113281-11.246094 0.0016344-0.694597 0.1015625-1.158203 0.1015625-1.158203zm19 7v1l4 7c0.993425 1.986852 17.70906-2.915677 17.929688-2.980469 0.06234-0.621686 0.070312-1.019531 0.070312-1.019531s-17.000001 5-18 3l-4-7z" style="fill:#ffffff;opacity:.2"/>
</svg>

<?xml version="1.0" encoding="UTF-8" standalone="no"?>
<svg
   id="_图层_1"
   version="1.1"
   viewBox="0 0 64 64" width="64" height="64"
   sodipodi:docname="octodad-dadliest-catch.svg"
   xml:space="preserve"
   inkscape:version="1.4 (e7c3feb100, 2024-10-09)"
   xmlns:inkscape="http://www.inkscape.org/namespaces/inkscape"
   xmlns:sodipodi="http://sodipodi.sourceforge.net/DTD/sodipodi-0.dtd"
   xmlns="http://www.w3.org/2000/svg"
   xmlns:svg="http://www.w3.org/2000/svg"><sodipodi:namedview
     id="namedview26"
     pagecolor="#505050"
     bordercolor="#eeeeee"
     borderopacity="1"
     inkscape:showpageshadow="0"
     inkscape:pageopacity="0"
     inkscape:pagecheckerboard="0"
     inkscape:deskcolor="#505050"
     inkscape:zoom="10.6875"
     inkscape:cx="32"
     inkscape:cy="32"
     inkscape:window-width="1920"
     inkscape:window-height="939"
     inkscape:window-x="0"
     inkscape:window-y="34"
     inkscape:window-maximized="1"
     inkscape:current-layer="_图层_1"
     showguides="true"><sodipodi:guide
       position="24.129209,43.688782"
       orientation="1,0"
       id="guide47"
       inkscape:locked="false" /><sodipodi:guide
       position="39.990611,54.528988"
       orientation="1,0"
       id="guide48"
       inkscape:locked="false" /><sodipodi:guide
       position="31.294665,46.979418"
       orientation="0,-1"
       id="guide49"
       inkscape:locked="false" /><sodipodi:guide
       position="22.407535,30.743878"
       orientation="0,-1"
       id="guide50"
       inkscape:locked="false" /></sodipodi:namedview><!-- Generator: Adobe Illustrator 29.0.1, SVG Export Plug-In . SVG Version: 2.1.0 Build 192)  --><defs
     id="defs6"><style
       id="style1">
      .st0 {
        fill-opacity: .5;
      }

      .st0, .st1, .st2, .st3, .st4, .st5, .st6, .st7 {
        fill: #fff;
      }

      .st8 {
        fill: #133c9a;
      }

      .st2, .st9 {
        display: none;
      }

      .st3 {
        fill-opacity: .2;
      }

      .st4 {
        fill-opacity: .9;
      }

      .st10 {
        fill: #3370ff;
      }

      .st11 {
        fill: url(#_未命名的渐变_3);
      }

      .st12 {
        fill: url(#_未命名的渐变);
      }

      .st5 {
        fill-opacity: .3;
      }

      .st6 {
        fill-opacity: 0;
      }

      .st7 {
        fill-opacity: .7;
      }

      .st13 {
        fill: #00d6b9;
      }

      .st14 {
        fill: url(#_未命名的渐变_2);
      }
    </style><radialGradient
       id="_未命名的渐变"
       data-name="未命名的渐变"
       cx="123.9"
       cy="-40.2"
       fx="123.9"
       fy="-40.2"
       r="59.4"
       gradientTransform="translate(-26.8 25.5) scale(.6 -.7)"
       gradientUnits="userSpaceOnUse"><stop
         offset="0"
         stop-color="#db202e"
         id="stop1" /><stop
         offset="1"
         stop-color="#e01b24"
         id="stop2" /></radialGradient><radialGradient
       id="_未命名的渐变_2"
       data-name="未命名的渐变 2"
       cx="67.6"
       cy="26.8"
       fx="67.6"
       fy="26.8"
       r="105.2"
       gradientTransform="translate(-26.6 25.3) scale(.6 -.7)"
       gradientUnits="userSpaceOnUse"><stop
         offset="0"
         stop-color="#ffb648"
         id="stop3" /><stop
         offset="1"
         stop-color="#ff7800"
         stop-opacity="0"
         id="stop4" /></radialGradient><radialGradient
       id="_未命名的渐变_3"
       data-name="未命名的渐变 3"
       cx="61.7"
       cy="18.6"
       fx="61.7"
       fy="18.6"
       r="68"
       gradientTransform="translate(-26.8 25.8) scale(.6 -.7)"
       gradientUnits="userSpaceOnUse"><stop
         offset="0"
         stop-color="#c64600"
         id="stop5" /><stop
         offset="1"
         stop-color="#a51d2d"
         id="stop6" /></radialGradient></defs><path
     class="st1"
     d="M47.5,64.1H13.8c-7.6,0-13.8-6.3-13.8-13.8V13.7C0,6.2,6.2,0,13.7,0h36.6c7.5,0,13.7,6.2,13.7,13.7v36.6c0,7.5-6.2,13.7-13.7,13.7h-2.9.1Z"
     id="path6"
     style="fill:#f9f9f9;fill-opacity:1" /><g
     id="g69"
     transform="matrix(0.87076209,0,0,0.82957393,4.0724221,4.7986634)"><path
       d="m 22,60 h 17 c 0,0 1,0 2,-2 1.000001,-3 5.999999,-21 5.999999,-21 l -29,-1 c 0,0 0.03239,23.972246 4.000001,24 z"
       style="opacity:0.2"
       id="path1" /><path
       d="m 22,59 h 17 c 0,0 1,0 2,-2 1.000001,-3 5.999999,-21 5.999999,-21 l -29,-1 c 0,0 0.03239,23.972246 4.000001,24 z"
       style="fill:#df8028"
       id="path2-4" /><path
       d="M 12.999999,26 C 12.999999,52.000001 33,55 40,55 60,55 60,37 60,37 60,37 55,33 55,28 55,23 56,17 56,17 56,17 54.183305,5 41.633394,5 33.697988,5 24.90018,9.183304 24.90018,9.183304 l -5.577738,4.183303 c 0,0 -6.322443,5.633393 -6.322443,12.633393 z"
       style="opacity:0.2"
       id="path3" /><path
       d="M 12.999999,25 C 12.999999,51.000001 33,54 40,54 60,54 60,36 60,36 60,36 55,32 55,27 55,22 56,16 56,16 56,16 54.183305,4 41.633394,4 33.697988,4 24.90018,8.1833035 24.90018,8.1833035 l -5.577738,4.1833035 c 0,0 -6.322443,5.633393 -6.322443,12.633393 z"
       style="fill:#f8bb07"
       id="path4" /><path
       d="M 41.632812,4 C 33.697406,4 24.900391,8.1835938 24.900391,8.1835938 L 19.322266,12.367188 C 19.322266,12.367188 13,18 13,25 c 0,0.238254 0.01229,0.460906 0.01563,0.695312 0.180497,-6.856569 6.306641,-12.328124 6.306641,-12.328124 l 5.57812,-4.1835942 C 24.900391,9.1835938 33.697406,5 41.632812,5 52.863062,5 55.481998,14.545572 55.912109,16.566406 55.945579,16.352031 56,16 56,16 56,16 54.182723,4 41.632812,4 Z M 55.015625,27.269531 C 55.011265,27.51259 55,27.760753 55,28 c 0,4.907977 4.766025,8.803735 4.943359,8.947266 C 59.995064,36.362219 60,36 60,36 c 0,0 -4.809008,-3.85813 -4.984375,-8.730469 z"
       style="opacity:0.2;fill:#ffffff"
       id="path5" /><path
       d="m 20,14 c -4.000001,0 -8,9 -8,9 0,0 -1,12 5,12 5,0 7,-9 7,-9 0,0 2.999999,-12 -4,-12 z m 17,4 c -8.000001,0 -8,9 -8,9 0,0 -1,11 7,11 8,0 8,-8 8,-8 0,0 0.999999,-12 -7,-12 z"
       style="opacity:0.2"
       id="path6-8" /><path
       d="M 20.000001,13 C 27,13 24,25 24,25 c 0,0 -2,9.000001 -7,9.000001 -6,0 -5,-12 -5,-12 C 12,22.000001 16,13 20.000001,13 Z"
       style="fill:#ffffff"
       id="path7-1" /><path
       d="m 37.000001,17.000001 c 7.999999,0 6.999999,12 6.999999,12 0,0 0,7.999999 -8,7.999999 -8,0 -7,-11 -7,-11 0,0 0,-8.999999 8.000001,-8.999999 z"
       style="fill:#ffffff"
       id="path8-2" /><ellipse
       cx="36"
       cy="25"
       rx="3"
       ry="4"
       style="fill:#4f4f4f"
       id="ellipse8" /><path
       d="m 8.9999988,30 c 0,0 -1,3.999999 3.0000002,6.999999 l 8,-2 8,-11.999999 v 13.999999 l 4.000001,7 c 0.999999,2 17.999999,-3 17.999999,-3 0,0 0,16.000001 -17.999999,16.000001 C 27.999999,57 23.999999,50.999999 20,47 16.999999,49.999998 11.999999,52 4.999999,44.999998 1.9999992,40 8.999999,30 8.9999988,30 Z"
       style="opacity:0.2"
       id="path9-9" /><path
       d="M 9,29.000001 C 9,29.000001 8,33 12,36 l 8,-2 8,-11.999999 V 36 l 4.000001,7 C 33,45 50,40 50,40 50,40 50,56.000001 32.000001,56.000001 28,56.000001 24,50 20.000001,46.000001 17,48.999999 12,51.000001 5,43.999999 2,39.000001 9,29.000001 9,29.000001 Z"
       style="fill:#facd48"
       id="path10" /><ellipse
       cx="19"
       cy="22"
       rx="3"
       ry="4"
       style="fill:#4f4f4f"
       id="ellipse10" /><path
       d="m 28,22 -8,12 -8,2 C 9.5975882,34.198191 9.0110995,32.049372 8.9160156,30.609375 8.8038478,31.813095 8.9067638,34.680073 12,37 l 8,-2 8,-12 z M 9,29 C 9,29 3.997973,36.170442 4.2871094,41.404297 4.5922442,36.458572 8.6457298,30.523384 8.8984375,30.158203 8.9000719,29.463606 9,29 9,29 Z m 19,7 v 1 l 4,7 C 32.993425,45.986852 49.70906,41.084323 49.929688,41.019531 49.992028,40.397845 50,40 50,40 c 0,0 -17.000001,5 -18,3 z"
       style="opacity:0.2;fill:#ffffff"
       id="path11" /></g></svg>
